public/images/employers/restaurant-brands-international.svg

<svg enable-background="new -12.757 -90.498 480 480" height="480" viewBox="-12.757 -90.498 480 480" width="480" xmlns="http://www.w3.org/2000/svg"><g fill="#d6001c"><path d="m0 293.687h62.458v-198.671l-62.458 35.953z"/><path d="m264.12 234.884c-20.819 0-38.206-17.425-38.206-38.339 0-21.605 17.387-38.333 38.206-38.333 21.484 0 38.871 16.728 38.871 38.333-.001 20.914-17.387 38.339-38.871 38.339m0-140.792c-13.178 0-26.356 2.785-38.871 7.669 0-101.761 0-101.761 0-101.761-62.458 36.938-62.458 36.938-62.458 36.938v159.606c0 56.456 45.792 102.459 101.329 102.459 56.202 0 101.994-46.003 101.994-102.459-.001-56.45-45.793-102.452-101.994-102.452"/><path d="m71.761 132.558c0-21.103 17.11-38.206 38.206-38.206s38.206 17.104 38.206 38.206-17.11 38.206-38.206 38.206c-21.097 0-38.206-17.104-38.206-38.206z"/><path d="m384.053 293.687h63.123v-198.671l-63.123 35.952z"/><path d="m377.408 56.81c0-21.102 17.276-38.206 38.539-38.206 21.262 0 38.538 17.104 38.538 38.206 0 21.103-17.276 38.206-38.538 38.206s-38.539-17.103-38.539-38.206z"/></g></svg>

<?xml version="1.0" encoding="utf-8"?>
<!-- Generator: Adobe Illustrator 16.0.0, SVG Export Plug-In . SVG Version: 6.00 Build 0)  -->
<!DOCTYPE svg PUBLIC "-//W3C//DTD SVG 1.1//EN" "http://www.w3.org/Graphics/SVG/1.1/DTD/svg11.dtd">
<svg version="1.1"
	 id="svg8" xmlns:inkscape="http://www.inkscape.org/namespaces/inkscape" xmlns:sodipodi="http://sodipodi.sourceforge.net/DTD/sodipodi-0.dtd" xmlns:rdf="http://www.w3.org/1999/02/22-rdf-syntax-ns#" xmlns:svg="http://www.w3.org/2000/svg" xmlns:cc="http://creativecommons.org/ns#" xmlns:dc="http://purl.org/dc/elements/1.1/" inkscape:version="0.92.4 (5da689c313, 2019-01-14)" sodipodi:docname="A.svg"
	 xmlns="http://www.w3.org/2000/svg" xmlns:xlink="http://www.w3.org/1999/xlink" x="0px" y="0px" width="480px" height="480px"
	 viewBox="-12.757 -90.498 480 480" enable-background="new -12.757 -90.498 480 480" xml:space="preserve">
<sodipodi:namedview  units="px" fit-margin-left="0" fit-margin-top="0" inkscape:cy="41.184291" showgrid="false" borderopacity="1.0" inkscape:cx="532.39628" id="base" inkscape:zoom="1.4" pagecolor="#ffffff" bordercolor="#666666" inkscape:window-y="-8" inkscape:pageshadow="2" fit-margin-bottom="0" inkscape:current-layer="layer1" inkscape:window-width="1920" fit-margin-right="0" inkscape:window-height="1017" inkscape:document-units="px" inkscape:pageopacity="0.0" inkscape:window-x="1912" inkscape:window-maximized="1">
	</sodipodi:namedview>
<path id="path942" inkscape:connector-curvature="0" fill="#D6001C" d="M0,293.687h62.458V95.016L0,130.969V293.687z"/>
<path id="path944" inkscape:connector-curvature="0" fill="#D6001C" d="M264.12,234.884c-20.819,0-38.206-17.425-38.206-38.339
	c0-21.605,17.387-38.333,38.206-38.333c21.484,0,38.871,16.728,38.871,38.333C302.99,217.459,285.604,234.884,264.12,234.884
	 M264.12,94.092c-13.178,0-26.356,2.785-38.871,7.669c0-101.761,0-101.761,0-101.761c-62.458,36.938-62.458,36.938-62.458,36.938
	c0,159.606,0,159.606,0,159.606c0,56.456,45.792,102.459,101.329,102.459c56.202,0,101.994-46.003,101.994-102.459
	C366.113,140.094,320.321,94.092,264.12,94.092"/>
<path id="path946" inkscape:connector-curvature="0" fill="#D6001C" d="M71.761,132.558c0-21.103,17.11-38.206,38.206-38.206
	s38.206,17.104,38.206,38.206c0,21.102-17.11,38.206-38.206,38.206C88.87,170.764,71.761,153.66,71.761,132.558z"/>
<path id="path948" inkscape:connector-curvature="0" fill="#D6001C" d="M384.053,293.687h63.123V95.016l-63.123,35.952V293.687z"/>
<path id="path950" inkscape:connector-curvature="0" fill="#D6001C" d="M377.408,56.81c0-21.102,17.276-38.206,38.539-38.206
	c21.262,0,38.538,17.104,38.538,38.206c0,21.103-17.276,38.206-38.538,38.206C394.685,95.016,377.408,77.913,377.408,56.81z"/>
</svg>
